X:1
T:WiS 014 Thine is the Glory
T:Worship in Song
%%score 1 2 3 4
L:1/8
Q:1/4=120
M:4/4
K:Eb
V:1 treble nm="Grand Piano, WiS 014 Thine is the Glory"
V:2 treble nm="Grand Piano"
V:3 bass nm="Grand Piano"
V:4 bass nm="Grand Piano"
V:1
 B4 G3 A | B4 E4 | FGAB A2 G2 | F6 z2 | GABc B2 B2 | e4 B4 | A2 G2 F3 E | E6 z2 | GFGA G2 G2 | %9
w: |||||||||
 F4 E3 E | A2 G2 F2 E2 | D6 z2 | EDEF E2 E2 | c4 =A4 | B2 cB =A3 B | B6 z2 |[K:Eb] B4 G3 A | %17
w: ||||||||
 B4 E4 | FGAB A2 G2 | F6 z2 | GABc B2 B2 | e4 B4 | A2 G2 F3 E | E6 z2 | GFGA G2 G2 | F4 E3 E | %26
w: |||||||||
 A2 G2 F2 E2 | D6 z2 | EDEF E2 E2 | c4 =A4 | B2 cB =A3 B | B6 z2 |[K:Eb] B4 G3 A | B4 E4 | %34
w: ||||As~they~cry~to~thee. * * * *||||
 FGAB A2 G2 | F6 z2 | GABc B2 B2 | e4 B4 | A2 G2 F3 E | E6 z2 |] %40
w: ||God~our~King~Eternal,~ * * * * *||||
V:2
 E4 E3 F | E4 E4 | DEFG F2 E2 | D6 z2 | E2 E2 E2 E2 | E4 E4 | CD E2 E2 D2 | E6 z2 | EDEF E2 E2 | %9
 D4 C3 C | F2 E2 D2 C2 | =B,6 z2 | C=B,CD C2 C2 | E4 E4 | D2 ED C2 E2 | D6 z2 |[K:Eb] E4 E3 F | %17
 E4 E4 | DEFG F2 E2 | D6 z2 | E2 E2 E2 E2 | E4 E4 | CD E2 E2 D2 | E6 z2 | EDEF E2 E2 | D4 C3 C | %26
 F2 E2 D2 C2 | =B,6 z2 | C=B,CD C2 C2 | E4 E4 | D2 ED C2 E2 | D6 z2 |[K:Eb] E4 E3 F | E4 E4 | %34
 DEFG F2 E2 | D6 z2 | E2 E2 E2 E2 | E4 E4 | CD E2 E2 D2 | E6 z2 |] %40
V:3
 G,4 B,3 A, | G,4 B,4 | B,2 B,2 B,2 B,2 | B,6 z2 | B,2 B,A, B,2 B,2 | B,4 G,4 | A,2 B,2 B,2 A,2 | %7
 G,6 z2 | B,2 B,2 B,2 B,2 | A,4 G,3 G, | =B,2 C2 A,2 G,2 | G,6 z2 | G,2 G,2 G,2 G,2 | =A,4 C4 | %14
 B,2 G,2 F,2 F,2 | F,6 z2 |[K:Eb] G,4 B,3 A, | G,4 B,4 | B,2 B,2 B,2 B,2 | B,6 z2 | %20
 B,2 B,A, B,2 B,2 | B,4 G,4 | A,2 B,2 B,2 A,2 | G,6 z2 | B,2 B,2 B,2 B,2 | A,4 G,3 G, | %26
 =B,2 C2 A,2 G,2 | G,6 z2 | G,2 G,2 G,2 G,2 | =A,4 C4 | B,2 G,2 F,2 F,2 | F,6 z2 | %32
[K:Eb] G,4 B,3 A, | G,4 B,4 | B,2 B,2 B,2 B,2 | B,6 z2 | B,2 B,A, B,2 B,2 | B,4 G,4 | %38
 A,2 B,2 B,2 A,2 | G,6 z2 |] %40
V:4
 E,4 G,3 F, | E,4 G,4 | B,2 B,,2 D,2 E,2 | B,,6 z2 | E,F,G,A, G,2 G,2 | G,4 E,4 | %6
 F,2 G,A, B,2 B,,2 | E,6 z2 | E,2 E,2 E,2 E,2 | B,,4 C,3 C, | D,2 E,2 F,2 C,2 | G,6 z2 | %12
 C,2 C,2 C,2 C,2 | F,4 F,4 | G,2 E,2 F,2 F,,2 | B,,6 z2 |[K:Eb] E,4 G,3 F, | E,4 G,4 | %18
 B,2 B,,2 D,2 E,2 | B,,6 z2 | E,F,G,A, G,2 G,2 | G,4 E,4 | F,2 G,A, B,2 B,,2 | E,6 z2 | %24
 E,2 E,2 E,2 E,2 | B,,4 C,3 C, | D,2 E,2 F,2 C,2 | G,6 z2 | C,2 C,2 C,2 C,2 | F,4 F,4 | %30
 G,2 E,2 F,2 F,,2 | B,,6 z2 |[K:Eb] E,4 G,3 F, | E,4 G,4 | B,2 B,,2 D,2 E,2 | B,,6 z2 | %36
 E,F,G,A, G,2 G,2 | G,4 E,4 | F,2 G,A, B,2 B,,2 | E,6 z2 |] %40

